X:1
T:Oh, It Is Wonderful
T:Oh, It Is Wonderful
T:Elisha Albright Hoffman, 1894
T:Elizabeth C. Green, 1892, alt.
T:Public Domain Courtesy of the Cyber Hymnal™
T:Public Domain Courtesy of the Cyber Hymnal™
C:Elisha Albright Hoffman, 1894
Z:Public Domain
Z:Courtesy of the Cyber Hymnal™
%%score 1 ( 2 3 )
L:1/8
Q:1/4=112
M:4/4
K:Ab
V:1 treble 
V:2 bass 
V:3 bass 
V:1
 [CA]2 [CA]2 [DF]2 [CE]2 | [CA]2 [CA]2 [DF]2 [CE]2 | [CA]2 [EA][EB] [Ec][Ec][EA][EA] | %3
w: 1.~Can it be that|Je- sus bought me,|And on the hal- lowed cross a-|
w: 2.~Praise His name, He|sought and found me,|Saved me from wan- der- ing and|
w: 3.~It was months He|had been wait- ing,|Wai- ting the dawn- ing of the|
w: 4.~From that hour He|has been seek- ing|How He may fill me with His|
w: 5.~As I think of|all, I mar- vel,|Why in such pa- tience He my|
w: 6.~So I cry, with|love o’er- flow- ing:|“Un- to the Sav- ior be e-|
 [EB]2 [Ec]2 [EB]4 | [Ae]2 [Ae]2 [Ec]2 [EA]2 | [Ec]2 [EB]2 [CA]2 !fermata![DF]2 | %6
w: toned for me?|Loved me, chose me|ere I knew Him?|
w: brought me near;|Free- ly now His|grace bes- tow- ing,|
w: pre- cious hour,|When I should at|last be yield- ing,|
w: pre- cious love,|How He may thro’|grace trans- form me,|
w: good has sought,|And bes- towed His|grace up- on me,|
w: ter- nal praise,”|Who re- deemed me,|soul and bo- dy,|
 [CE]2 [EA][EB] [Ec][Ec][EA][EA] | [DB]2 [Ec]2 [CA]4 ||"^Refrain" [CA]2 [CA][CA] [DF][CE] [CE]2 | %9
w: Oh, what a pre- cious, pre- cious|friend is He!||
w: Je- sus is grow- ing un- to|me more dear.||
w: Yield- ing to Je- sus ev- ery|ran- somed power.|Oh, it is won- der- ful,|
w: Meet for the fel- low- ship of|saints a- bove.||
w: And in my spir- it such a|change has wrought.||
w: Fill- ing with glad- ness all my|earth- ly days.||
 [CA][CA][CA][CA] [DF][CE] [CE]2 | [CA]2 [CA]2 [Ec]2 [EA]2 | [EB]2 [Ge]2 [Ge]4 | %12
w: |||
w: |||
w: ve- ry ve- ry won- der- ful,|All His grace so|rich and free!|
w: |||
w: |||
w: |||
 [CA]2 [CA][CA] [DF][CE] [CE]2 | [CA][CA][CA][CA] [DF][CE] [CE]2 | [Ae]2 [Ae]2 [Ec]2 [EA]2 | %15
w: |||
w: |||
w: Oh, it is won- der- ful,|ve- ry ve- ry won- der- ful,|All His love and|
w: |||
w: |||
w: |||
 [Ec]2 [DB]2 [CA]4 |] %16
w: |
w: |
w: grace to me!|
w: |
w: |
w: |
V:2
 [A,,E,]2 [A,,E,]2 [A,,A,]2 [A,,A,]2 | [A,,E,]2 [A,,E,]2 [A,,A,]2 [A,,A,]2 | %2
 [A,,A,]2 [C,A,][C,E,] A,A,[C,A,][C,A,] | [E,G,]2 [E,A,]2 [E,G,]4 | [A,C]2 [A,C]2 A,2 [A,C]2 | %5
 A,2 [E,G,]2 [F,A,]2 !fermata![D,A,]2 | [A,,A,]2 [C,A,][E,G,] A,A,[C,A,][C,A,] | %7
 [E,G,]2 [E,G,]2 [A,,E,]4 || [A,,E,]2 [A,,E,][A,,E,] [A,,A,][A,,A,] [A,,A,]2 | %9
 [A,,E,][A,,E,][A,,E,][A,,E,] [A,,A,][A,,A,] [A,,A,]2 | [A,,E,]2 [A,,E,]2 [A,,A,]2 [C,A,]2 | %11
 [E,G,]2 [E,B,]2 [E,B,]4 | [A,,E,]2 [A,,E,][A,,E,] [A,,A,][A,,A,] [A,,A,]2 | %13
 [A,,E,][A,,E,][A,,E,][A,,E,] [A,,A,][A,,A,] [A,,A,]2 | [A,,C]2 [A,,C]2 [A,,A,]2 [C,A,]2 | %15
 [E,A,]2 [E,G,]2 [A,,E,]4 |] %16
V:3
 x8 | x8 | x4 A,A, x2 | x8 | x4 A,2 x2 | A,2 x6 | x4 A,A, x2 | x8 || x8 | x8 | x8 | x8 | x8 | x8 | %14
 x8 | x8 |] %16

